!! 00005] TT[TB
!! NN
!!!OTL: Dahong gongji chuang tai wo
!!!ARE: Asia, China, Shanxi, Hequ
!! Ethnic Group: Han
!! I, 297
!!!SCT: C0076A
!!!YEM: Copyright 1995, estate of Helmut Schaffrath.
**kern
*ICvox
*Ivox
*M2/4
*k[b-]
*F:
{8dd
8a
[4dd
=1
2dd]
=2
8a
8gg
8cc
16a
16g
=3
8f
8d
8g
8a
=4
2d}
=5
{8dd
8a
[4dd
=6
2dd]
=7
8a
8gg
8cc
16a
16g
=8
8f
8d
8g
8a
=9
2g}
==
!!!AGN: Shange, Shanqu. Geming lishi minge
!! Doppelt aufgenommen. Neues Volkslied. Sehr typische Tonart  fuer
!!    diese Gegend. ZWEIMAL GESUNGEN. HIER LEICHT VERZIERT.
!!!ONB: ESAC (Essen Associative Code) Database: CHINA
!!!AMT: simple duple
!!!AIN: vox
!!!EED: Helmut Schaffrath
!!!EEV: 1.0
*-
!!!ONB: Tied note syntax fixed by Craig Sapp, 2004/05/03/
